X:717
T:SADDLE THE PONY
M:6/8
L:1/8
B:O'NEILL'S 717
N:"1st setting"  "collected by F. O'Neill"
Z:Transcribed by A. LEE WORMAN
K:A
A/B/|:cAA eAA|cBc eAA|cAA eAA|dBG Bcd|
cAA eAA|cBc efg|agf gfe|dBG Bcd:|
||ea3f agee|fdd gee|ea3f agfe|dBG Bcd|
ea3f agee|fdd gee|def gfe|dBG Bcd:|
